!!!OTL: Koenig und Marquise Hourah les fill' a quat' deniers,
!!!ARE: Europa, Mitteleuropa, France
!!!YOR: 2, S. 30
!!    1889 gedruckt
!!!SCT: Q3035B
!!!YEM: Copyright 1995, estate of Helmut Schaffrath.
**kern
*ICvox
*Ivox
*M6/8
*k[f#]
*e:
{8b
8b
8a
8gn
=1
4a
8a
4ddn
8ddn
=2
4b}
{8b
8b
8a
8gn
=3
4a
8a
4ddn
8ddn
=4
4b}
{8b
4ee
8ee
=5
4ddn
8ee
4b
8a
=6
8gn
8r}
{8b
8.b
16a
8gn
=7
8.a
16b
8a
4gn
8f#
=8
4e}
==
!!!AGN: Matrosen - Lied
!! Franzoesische Melodievariante von Q0035: anderes Lied.
!!!ONB: ESAC (Essen Associative Code) Database: BALLADE
!!!AMT: compound duple
!!!AIN: vox
!!!EED: Helmut Schaffrath
!!!EEV: 1.0
*-
